!!!OTL: Wo da changgong shi jiannan
!!!ARE: Asia, China,ÿJiangxi, Jinxian
!! IV, 229
!!!SCT: C1672
!!!YEM: Copyright 1995, estate of Helmut Schaffrath.
**kern
*ICvox
*Ivox
*M2/4
*k[f#c#g#]
*A:
{8f#
8f#
16f#
16e
8c#
=1
4r
8r
8f#
=2
8a
16a
16b
8cc#
8cc#
=3
8cc#
[4.b
=4
4b]
8cc#
8f#}
=5
{8a
16b
16cc#
8b
16b
16a
=6
8f#
4e
8f#
=7
8a
8f#
8r}
{8f#
=8
8.a
16b
8b
16b
16a
=9
8f#
4e
8f#
=10
8a
8f#
8r}
{8f#
=11
8a
8b
16b
16a
16f#
16e
=12
8e
4.e}
==
!!!AGN: Shange. Suku
!!!AMT: simple duple
!!!AIN: vox
!!!EED: Helmut Schaffrath
!!!EEV: 1.0
*-
!!!ONB: Tied note syntax fixed by Craig Sapp, 2004/05/03/
